build/img/parteners/zoom-logo.svg

<svg width="111" height="48" viewBox="0 0 111 48" fill="none" xmlns="http://www.w3.org/2000/svg">
<g style="mix-blend-mode:luminosity" clip-path="url(#clip0_333_1363)">
<path fill-rule="evenodd" clip-rule="evenodd" d="M90.3594 20.5972C90.7816 21.2429 90.9197 21.9774 90.9653 22.8032L91.0253 23.9039V31.6007L91.0865 32.7025C91.209 34.502 92.7063 35.8325 94.7523 35.9457L95.989 36V23.9039L96.0503 22.8032C96.1011 21.9867 96.2379 21.2382 96.6667 20.588C97.1035 19.921 97.7307 19.3677 98.4852 18.9835C99.2397 18.5993 100.095 18.3978 100.965 18.3992C101.835 18.4006 102.69 18.6049 103.443 18.9915C104.195 19.3781 104.82 19.9335 105.254 20.6018C105.677 21.2475 105.808 21.9959 105.859 22.8032L105.92 23.9005V31.6007L105.982 32.7025C106.109 34.5112 107.595 35.8418 109.647 35.9457L110.884 36V22.8032C110.884 20.4697 109.838 18.2317 107.977 16.5813C106.116 14.9309 103.591 14.0032 100.958 14.0023C99.5487 14.001 98.1554 14.2662 96.8711 14.7803C95.5868 15.2944 94.441 16.0454 93.5104 16.9833C92.5793 16.0458 91.4335 15.2949 90.1493 14.7807C88.8651 14.2665 87.472 14.0007 86.0628 14.0012C84.0013 14.0012 82.0882 14.5555 80.5036 15.513C79.5366 14.5567 77.3734 14.0012 76.1315 14.0012V36L77.3734 35.9457C79.4506 35.8244 80.9519 34.5297 81.0327 32.7025L81.0991 31.6007V23.9039L81.1604 22.8032C81.2125 21.9728 81.3428 21.2429 81.7663 20.5926C82.2036 19.9261 82.8305 19.3728 83.5844 18.9882C84.3383 18.6035 85.1929 18.4009 86.0628 18.4005C86.9334 18.4006 87.7887 18.6037 88.5428 18.9893C89.2969 19.3748 89.9234 19.9294 90.3594 20.5972V20.5972ZM5.38951 35.9469L6.63142 36H25.247L25.1858 34.9028C25.0177 33.0941 23.5725 31.7728 21.5252 31.655L20.2833 31.6007H9.11524L24.0051 18.3993L23.9439 17.3032C23.8474 15.4761 22.341 14.1559 20.2833 14.0554L19.0414 14.0058L0.425781 14.0012L0.48703 15.1019C0.649925 16.8932 2.11598 18.2422 4.1463 18.3462L5.38951 18.4005H16.5576L1.66769 31.6018L1.72894 32.7025C1.85144 34.5159 3.32792 35.8291 5.38951 35.9457V35.9469ZM71.259 17.2212C72.4116 18.2426 73.326 19.4552 73.9498 20.7898C74.5736 22.1244 74.8947 23.5548 74.8947 24.9994C74.8947 26.444 74.5736 27.8744 73.9498 29.209C73.326 30.5436 72.4116 31.7562 71.259 32.7776C68.9302 34.8399 65.7729 35.9983 62.4809 35.9983C59.1889 35.9983 56.0316 34.8399 53.7028 32.7776C48.8564 28.4823 48.8564 21.5166 53.7028 17.2212C54.8544 16.2002 56.2217 15.3902 57.7265 14.8375C59.2313 14.2848 60.8442 14.0002 62.4731 14C64.1046 13.999 65.7204 14.2831 67.228 14.836C68.7355 15.3889 70.1053 16.1999 71.259 17.2224V17.2212ZM67.747 20.3362C69.1429 21.5744 69.9271 23.2531 69.9271 25.0035C69.9271 26.7538 69.1429 28.4326 67.747 29.6707C66.3499 30.908 64.4558 31.6029 62.4809 31.6029C60.506 31.6029 58.6118 30.908 57.2148 29.6707C55.8189 28.4326 55.0347 26.7538 55.0347 25.0035C55.0347 23.2531 55.8189 21.5744 57.2148 20.3362C58.6118 19.099 60.506 18.404 62.4809 18.404C64.4558 18.404 66.3499 19.099 67.747 20.3362V20.3362ZM36.4255 14C38.0545 14.0004 39.6675 14.2851 41.1723 14.8381C42.6771 15.391 44.0443 16.2012 45.1958 17.2224C50.0435 21.5166 50.0435 28.4834 45.1958 32.7776C42.8671 34.8399 39.7097 35.9983 36.4177 35.9983C33.1257 35.9983 29.9684 34.8399 27.6396 32.7776C22.7932 28.4823 22.7932 21.5166 27.6396 17.2212C28.7912 16.2002 30.1585 15.3902 31.6633 14.8375C33.1681 14.2848 34.781 14.0002 36.4099 14H36.4255ZM41.6838 20.3339C43.0801 21.5721 43.8645 23.2511 43.8645 25.0017C43.8645 26.7524 43.0801 28.4314 41.6838 29.6696C40.2868 30.9068 38.3926 31.6018 36.4177 31.6018C34.4428 31.6018 32.5487 30.9068 31.1517 29.6696C29.7557 28.4314 28.9715 26.7527 28.9715 25.0023C28.9715 23.252 29.7557 21.5732 31.1517 20.335C32.5487 19.0978 34.4428 18.4028 36.4177 18.4028C38.3926 18.4028 40.2868 19.0978 41.6838 20.335V20.3339Z" fill="#2D8CFF"/>
</g>
<defs>
<clipPath id="clip0_333_1363">
<rect width="110.573" height="48" fill="white" transform="translate(0.425781)"/>
</clipPath>
</defs>
</svg>

<svg width="111" height="48" fill="none" xmlns="http://www.w3.org/2000/svg"><g style="mix-blend-mode:luminosity" clip-path="url(#a)"><path fill-rule="evenodd" clip-rule="evenodd" d="M90.36 20.597c.422.646.56 1.38.605 2.206l.06 1.1v7.698l.061 1.102c.123 1.799 1.62 3.13 3.666 3.243L95.99 36V23.904l.061-1.1c.051-.817.188-1.566.617-2.216a4.72 4.72 0 0 1 1.818-1.605 5.46 5.46 0 0 1 2.48-.584 5.46 5.46 0 0 1 2.478.592 4.719 4.719 0 0 1 1.811 1.61c.423.646.554 1.395.605 2.202l.061 1.098v7.7l.062 1.102c.127 1.808 1.613 3.139 3.665 3.243l1.237.054V22.803c0-2.333-1.046-4.571-2.907-6.222-1.861-1.65-4.386-2.578-7.019-2.579a10.991 10.991 0 0 0-4.087.778 9.917 9.917 0 0 0-3.36 2.203 9.931 9.931 0 0 0-3.362-2.202 11.004 11.004 0 0 0-4.086-.78c-2.062 0-3.975.555-5.56 1.512-.966-.956-3.13-1.512-4.371-1.512V36l1.241-.054c2.078-.122 3.579-1.416 3.66-3.243l.066-1.102v-7.697l.061-1.1c.053-.831.183-1.561.606-2.211a4.735 4.735 0 0 1 1.818-1.605 5.472 5.472 0 0 1 2.479-.587c.87 0 1.726.203 2.48.588.754.386 1.38.94 1.816 1.608ZM5.39 35.947 6.63 36h18.616l-.061-1.097c-.168-1.809-1.613-3.13-3.66-3.248l-1.243-.054H9.115l14.89-13.202-.061-1.096c-.097-1.827-1.603-3.147-3.66-3.248l-1.243-.05-18.615-.004.061 1.1c.163 1.792 1.629 3.141 3.66 3.245l1.243.055h11.168L1.668 31.6l.06 1.102c.123 1.813 1.6 3.126 3.662 3.243ZM71.259 17.22a11.015 11.015 0 0 1 2.69 3.569 9.924 9.924 0 0 1 .946 4.21 9.924 9.924 0 0 1-.945 4.209 11.015 11.015 0 0 1-2.691 3.569c-2.329 2.062-5.486 3.22-8.778 3.22-3.292 0-6.45-1.158-8.778-3.22-4.847-4.296-4.847-11.261 0-15.557a12.615 12.615 0 0 1 4.023-2.383A13.796 13.796 0 0 1 62.474 14a13.809 13.809 0 0 1 4.755.836 12.626 12.626 0 0 1 4.031 2.386Zm-3.512 3.115c1.396 1.238 2.18 2.917 2.18 4.668 0 1.75-.784 3.429-2.18 4.667-1.397 1.237-3.291 1.932-5.266 1.932s-3.87-.695-5.266-1.932c-1.396-1.238-2.18-2.917-2.18-4.668 0-1.75.784-3.429 2.18-4.667 1.397-1.237 3.291-1.932 5.266-1.932s3.869.695 5.266 1.932ZM36.425 14c1.63 0 3.242.285 4.747.838a12.614 12.614 0 0 1 4.024 2.384c4.848 4.295 4.848 11.261 0 15.556-2.329 2.062-5.486 3.22-8.778 3.22-3.292 0-6.45-1.158-8.778-3.22-4.847-4.296-4.847-11.261 0-15.557a12.615 12.615 0 0 1 4.023-2.383A13.796 13.796 0 0 1 36.41 14h.016Zm5.259 6.334c1.396 1.238 2.18 2.917 2.18 4.668 0 1.75-.784 3.43-2.18 4.668-1.397 1.237-3.291 1.932-5.266 1.932s-3.87-.695-5.266-1.932c-1.396-1.239-2.18-2.917-2.18-4.668 0-1.75.784-3.429 2.18-4.667 1.397-1.237 3.29-1.932 5.266-1.932 1.975 0 3.869.695 5.266 1.932v-.001Z" fill="#2D8CFF"/></g><defs><clipPath id="a"><path fill="#fff" transform="translate(.426)" d="M0 0h110.573v48H0z"/></clipPath></defs></svg>
